svg/u1f93e_1f3fb_200d_2642.svg

<svg viewBox="0 0 128 128" xmlns="http://www.w3.org/2000/svg">
  <linearGradient id="leg_2_" gradientTransform="matrix(0.9962 0.0876 0.0876 -0.9962 6.6333 123.4366)" gradientUnits="userSpaceOnUse" x1="82.794" x2="60.7654" y1="20.0706" y2="38.0185">
    <stop offset="0.5979" stop-color="#F9DDBD"/>
    <stop offset="1" stop-color="#FFD29C"/>
  </linearGradient>
  <path id="leg_1_" d="M78.33,95.99l-4.01-15.41l-12.48,5.05c0,0,2.82,8.25,3.93,12.02 c0.92,3.12,2.47,6.31,7.53,8.79l22.24,9.26l0.6-7.71L78.33,95.99z" fill="url(#leg_2_)"/>
  <g id="sock_1_">
    <path d="M90.17,103.96c-3.13,4.29-2.36,8.54-2.36,8.54l8.51,3.8l1.06-8.25L90.17,103.96z" fill="#E0E0E0"/>
  </g>
  <g id="shoe_x5F_back_1_">
    <path d="M101.75,105.24c-0.22-0.64-1.33-1.24-2.64-0.94l-2.24,0.64c-1.53,0.79-1.89,1.75-1.89,1.75 c-0.44,5.15,0.57,9,0.57,9l4.58,5.32c1.13,1.33,2.96,1.84,4.62,1.29l1.28-0.43c0.56-0.19,1.15-1.18,0.87-2.29L101.75,105.24z" fill="#4568AD"/>
  </g>
  <g id="pants_x5F_back_1_">
    <path d="M60.78,83.29C60.54,84.91,65,95.13,65,95.13c7.18-0.54,14.7-7.33,14.7-7.33s-3.92-4.44-3.56-12.59 L60.78,83.29z" fill="#616161"/>
  </g>
  <linearGradient id="leg_3_" gradientTransform="matrix(1 0 0 -1 0 130)" gradientUnits="userSpaceOnUse" x1="40.1253" x2="56.1253" y1="28.6214" y2="45.2464">
    <stop offset="0.5979" stop-color="#F9DDBD"/>
    <stop offset="1" stop-color="#FFD29C"/>
  </linearGradient>
  <path id="leg" d="M44.11,108.6l8.51-0.07c0,0-2.84-15.54-3.59-18.37l19.8-6.54l-4.35-13.53L41.74,80.37 c-2.88,1.3-5.77,4.87-4.17,10.85C38.5,94.65,44.11,108.6,44.11,108.6z" fill="url(#leg_3_)"/>
  <g id="sock_x5F_front_1_">
    <path d="M51.46,101.64c-5.59-0.47-9.09,2.58-9.09,2.58l3,9l7.75-2.82L51.46,101.64z" fill="#E0E0E0"/>
  </g>
  <g id="shoe_x5F_front_1_">
    <path d="M53.92,115.37c0.64-0.21,1.26-1.31,0.97-2.62l-0.62-2.25c-0.52-1.64-2.17-3.11-2.17-3.11 c-5.18-0.53-8.62,2.96-8.62,2.96l-5.31,3.2c-1.35,1.12-1.88,2.94-1.34,4.61l0.42,1.29c0.18,0.56,1.17,1.16,2.28,0.9L53.92,115.37z " fill="#4568AD"/>
    <path d="M47.17,115.09c-4.39,1.71-7.46,3.03-8.73,4.03c-1.33,0.91-0.17,1.54,1.13,1.18l12.3-3.7 c2.33-0.79,3.18-1.8,3.08-2.92C54.85,112.57,51.29,113.48,47.17,115.09z" fill="#294B7C"/>
  </g>
  <g id="pants_x5F_front_1_">
    <path d="M46.54,78.19c5.26,1.05,11.65,11.62,11.65,11.62s10.21-4.63,13.86-6.79 c6.72-3.97,4.87-11.79,2.72-15.62l-2.73-5.96l-19.36,4.93l-0.26,4.18l0.8,4.18L46.54,78.19z" fill="#7C7C7C"/>
  </g>
  <path id="shadow_x5F_shirt" d="M53.23,74.74c10.04-7.05,22.57-5.08,22.57-5.08 c-1.54-4.2-4.48-9.59-4.48-9.59s-18.82,4.97-19.18,7.55C51.77,70.2,53.23,74.74,53.23,74.74z" enable-background="new " opacity="0.2"/>
  <linearGradient id="arm_2_" gradientTransform="matrix(1 0 0 -1 0 130)" gradientUnits="userSpaceOnUse" x1="32.3996" x2="50.6496" y1="66.2963" y2="71.1296">
    <stop offset="0.5979" stop-color="#F9DDBD"/>
    <stop offset="1" stop-color="#FFD29C"/>
  </linearGradient>
  <path id="arm_1_" d="M58.47,54.82L53.7,47.7L33.12,69.57c0,0,0,1.54,1.78,2.59 c1.78,1.05,3.54,0.28,3.54,0.28L58.47,54.82z" fill="url(#arm_2_)"/>
  <path id="tone" d="M33.03,72c0,0-1.54,2.53-2.06,5.75c-0.21,1.33,0.25,2.52,0.42,2.74 c0.55,0.71,1.53,0.87,1.85,0.28c0.27-0.51-0.41-1.36-0.41-1.86c0.01-0.6,0.35-1.08,0.35-1.08c0.21,0.62,1.64,1.93,2.11,1.8 c1.33-0.38-0.73-2.04-0.64-3.14c0.24-2.86,1.33-4.73,1.33-4.73L33.03,72z" fill="#EDBD82"/>
  <linearGradient id="hand_2_" gradientTransform="matrix(1 0 0 -1 0 130)" gradientUnits="userSpaceOnUse" x1="31.0074" x2="35.8356" y1="56.0733" y2="51.1158">
    <stop offset="0.5979" stop-color="#F9DDBD"/>
    <stop offset="1" stop-color="#FFD29C"/>
  </linearGradient>
  <path id="hand_1_" d="M39.37,70.45c0.2,1.81-0.16,1.64-0.53,3.93c-0.22,1.41,0.49,1.95,0.45,2.96 c-0.02,0.6-0.7,1.26-1.39,0.86c-1.53-0.89-0.84-4.5-3.72-3.68c-2.11,0.6-3.07,5.24-4.84,6.72c-1.73,1.45-3.17,0.26-2.73-0.28 c0,0,0.94-1.7,2.05-3.53c1.33-2.2,1.8-6.28,5.62-8.84L39.37,70.45z" fill="url(#hand_2_)"/>
  <path id="shirt_1_" d="M60.91,40.05c-7.7,6.38-12.72,12.76-12.72,12.76c4.27,0.28,8.09,6.48,8.09,6.48 S66.7,35.25,60.91,40.05z" fill="#008F76"/>
  <path id="head_1_" d="M69.35,15.85c-2.18-4.7-9.46-7.14-14.49-5.92c-5.63,1.37-8.4,5.71-8.82,10.98 c-0.15,1.91,0.05,3.79,0.47,5.1c0.05,0.16,0.45,1.3,0.5,1.66c0.32,1.39-2.3,2.99-2.5,4.57c-0.15,1.18,2.34,1.74,2.55,1.94 c1.03,0.97-0.1,5.89,6.62,6.07c2.34,0.06,2.79-0.22,2.79-0.22l0.47,7.63l11.18-8.24c0,0-2.07-3.28-0.43-6.58 C69.81,28.54,72.13,21.84,69.35,15.85z" fill="#F9DDBD"/>
  <path id="mouth_1_" d="M47.95,36.91c0.93-0.02,1.83-0.3,2.57-0.94c0.81-0.7,0.17-1.37-0.78-0.87 c-0.57,0.3-1.4,0.49-2.17,0.4L47.95,36.91z" fill="#444444"/>
  <ellipse id="eye_1_" cx="51.21" cy="28.14" fill="#312D2D" rx="1.23" ry="1.88" transform="matrix(0.9943 -0.1063 0.1063 0.9943 -2.7013 5.6031)"/>
  <path id="eyebrow_1_" d="M50.04,25.53c-1.12,0.55-1.53-0.17-1.25-0.87c0.21-0.51,0.86-1.02,2.28-1 c1.34,0.03,2.01,0.68,2.44,1.07s0.47,0.85,0.18,0.94C53.28,25.81,51.42,24.85,50.04,25.53z" fill="#454140"/>
  <g id="handball_1_">
    <radialGradient id="SVGID_1_" cx="80.9043" cy="113.6813" gradientTransform="matrix(0.987 0.161 0.161 -0.987 -7.2759 109.7164)" gradientUnits="userSpaceOnUse" r="11.6795">
      <stop offset="0" stop-color="#CED7DB"/>
      <stop offset="0.3026" stop-color="#BFCBD0"/>
      <stop offset="0.8798" stop-color="#99ABB4"/>
      <stop offset="1" stop-color="#90A4AE"/>
    </radialGradient>
    <circle cx="93.55" cy="15.09" fill="url(#SVGID_1_)" r="11.66"/>
  </g>
  <linearGradient id="arm_3_" gradientTransform="matrix(0.9858 0.1678 0.1678 -0.9858 -0.7438 108.4153)" gradientUnits="userSpaceOnUse" x1="88.876" x2="63.0156" y1="99.9157" y2="76.3809">
    <stop offset="0.5979" stop-color="#F9DDBD"/>
    <stop offset="1" stop-color="#FFD29C"/>
  </linearGradient>
  <path id="arm" d="M68.48,38.87c-5.57,2.65-0.62,9.18-0.62,9.18s10.75-1.8,15.12-2.83 c6.21-1.44,7.15-3.58,8.66-5.46c1.21-1.51,7.22-10.4,7.22-10.4l-0.34-3.15l-5.51,1.2l-9.28,8.52 C83.73,35.92,73.35,36.56,68.48,38.87z" fill="url(#arm_3_)"/>
  <linearGradient id="hand_3_" gradientTransform="matrix(0.9964 -0.0843 -0.0843 -0.9964 -3.2763 139.4733)" gradientUnits="userSpaceOnUse" x1="117.6109" x2="91.7504" y1="114.1102" y2="90.5754">
    <stop offset="0.5979" stop-color="#F9DDBD"/>
    <stop offset="1" stop-color="#FFD29C"/>
  </linearGradient>
  <path id="hand" d="M93.18,27.87c-0.14-2.83,3.46-4.27,3.46-4.27s-1.21-3.01-1.68-3.96 c-0.46-0.95-0.14-1.61,0.04-1.71c0.58-0.33,1.17-0.01,1.35,0.2c0.77,0.93,1.93,2.55,1.93,2.55c0.5-0.2-0.28-2.8-0.67-4.55 c-0.23-1.03,0.99-2.15,1.87-0.32c0.73,1.51,1.67,4.35,1.67,4.35c0.17-1.16-0.04-2.98-0.27-5.27c-0.11-1.07,0.33-1.55,1.03-1.61 c0.52-0.05,0.97,0.09,1.33,2.23c0.11,0.64,0.29,4.25,0.29,4.25c1.01-0.52,1.26-3.31,1.34-5.11c0.05-1.27,1.73-1.59,1.95,0.32 c0.45,3.88-1.56,7.19-2.48,8.74c-0.48,0.81-5.78,5.83-5.78,5.83L93.18,27.87z" fill="url(#hand_3_)"/>
  <g id="shirt">
    <radialGradient id="SVGID_2_" cx="9.8716" cy="66.8589" gradientTransform="matrix(0.9427 0.3337 0.3337 -0.9427 27.617 107.3878)" gradientUnits="userSpaceOnUse" r="19.4216">
      <stop offset="0" stop-color="#00BFA5"/>
      <stop offset="1" stop-color="#009E89"/>
    </radialGradient>
    <path d="M79,65.63c-8.76-8.29-4.64-15.43-4.64-15.43s0.08-1.22,4.63-2.14c0,0-0.64-5.25,1.98-12.23 c0,0-10.01,0.1-14.15,1.46c-2.48,0.81-6.49,1.36-10.26,5.56c-2.16,2.4-3.65,4.7-5.17,12.14c-1.69,8.29,1.85,19.76,1.85,19.76 C60.88,66.05,79,65.63,79,65.63z" fill="url(#SVGID_2_)"/>
  </g>
  <g id="hairGroup_1_">
    <path id="hair_1_" d="M69.46,13.64c-2.62-2.83-7.19-4.5-11.45-4.42c-2.86,0.06-5.57,0.77-7.84,2.05 c-0.04,0.02-4.36,2.52-5.21,4.74c-0.91,2.38,0.16,3.66,0.41,3.89c0.2,0.18,0.47,0.23,0.71,0.24c0,0,0.01,0.02,0.01,0.02 s0.04-0.01,0.11-0.02c0.23-0.01,0.41-0.06,0.41-0.06c1.66-0.25,6.96-0.98,9.69-0.63c0.43,0.06,0.92,0.15,1.14,0.53 c0.1,0.16,0.25,1.24,0.27,1.43c0.36,2.43,0.28,3.98,1.14,5.46c0.14,0.24,0.66,0.53,0.66,0.53l0.88-1.62 c0.56-0.93,1.08-1.73,1.9-1.63c2.44,0.28,2.43,4.58-0.3,5.81c0,0,0.78,3.15,3.87,3.66c0.32,0.05,0.61,0.08,0.86,0.08 c0.11,0,0.22-0.01,0.33-0.04c1.08-0.04,1.85-0.36,2.02-1.4c0.38-2.24,0.91-3.24,1.48-4.3c0.67-1.25,1.37-2.54,1.69-5.79 C72.59,18.92,71.62,15.97,69.46,13.64z" fill="#312D2D"/>
    <radialGradient id="hairHighlights_1_" cx="58.468" cy="21.4556" gradientUnits="userSpaceOnUse" r="13.0716">
      <stop offset="0.5264" stop-color="#454140" stop-opacity="0"/>
      <stop offset="1" stop-color="#454140"/>
    </radialGradient>
    <path id="hairHighlights_2_" d="M69.46,13.64c-2.62-2.83-7.19-4.5-11.45-4.42 c-2.86,0.06-5.57,0.77-7.84,2.05c-0.04,0.02-4.36,2.52-5.21,4.74c-0.91,2.38,0.16,3.66,0.41,3.89c0.2,0.18,0.47,0.23,0.71,0.24 c0,0,0.01,0.02,0.01,0.02s0.04-0.01,0.11-0.02c0.23-0.01,0.41-0.06,0.41-0.06c1.66-0.25,6.96-0.98,9.69-0.63 c0.43,0.06,0.92,0.15,1.14,0.53c0.1,0.16,0.25,1.24,0.27,1.43c0.36,2.43,0.28,3.98,1.14,5.46c0.14,0.24,0.66,0.53,0.66,0.53 l0.88-1.62c0.56-0.93,1.08-1.73,1.9-1.63c2.44,0.28,2.43,4.58-0.3,5.81c0,0,0.78,3.15,3.87,3.66c0.32,0.05,0.61,0.08,0.86,0.08 c0.11,0,0.22-0.01,0.33-0.04c1.08-0.04,1.85-0.36,2.02-1.4c0.38-2.24,0.91-3.24,1.48-4.3c0.67-1.25,1.37-2.54,1.69-5.79 C72.59,18.92,71.62,15.97,69.46,13.64z" fill="url(#hairHighlights_1_)"/>
  </g>
</svg>

<svg viewBox="0 0 128 128" xmlns="http://www.w3.org/2000/svg">
  <defs>
    <linearGradient id="leg_2_" gradientTransform="matrix(0.9962 0.0876 0.0876 -0.9962 0 0)" gradientUnits="userSpaceOnUse" x1="100.213603" x2="78.185003" y1="-102.30507" y2="-84.35717">
      <stop offset="0.5979" stop-color="#F9DDBD"/>
      <stop offset="1" stop-color="#FFD29C"/>
    </linearGradient>
    <linearGradient id="leg_3_" gradientTransform="matrix(1 0 0 -1 0 0)" gradientUnits="userSpaceOnUse" x1="40.1253" x2="56.1253" y1="-101.3786" y2="-84.7536">
      <stop offset="0.5979" stop-color="#F9DDBD"/>
      <stop offset="1" stop-color="#FFD29C"/>
    </linearGradient>
    <linearGradient id="arm_2_" gradientTransform="matrix(1 0 0 -1 0 0)" gradientUnits="userSpaceOnUse" x1="32.3996" x2="50.6496" y1="-63.7037" y2="-58.8704">
      <stop offset="0.5979" stop-color="#F9DDBD"/>
      <stop offset="1" stop-color="#FFD29C"/>
    </linearGradient>
    <linearGradient id="arm_3_" gradientTransform="matrix(0.9858 0.1678 0.1678 -0.9858 0 0)" gradientUnits="userSpaceOnUse" x1="106.335574" x2="80.475174" y1="-7.089355" y2="-30.624155">
      <stop offset="0.5979" stop-color="#F9DDBD"/>
      <stop offset="1" stop-color="#FFD29C"/>
    </linearGradient>
    <linearGradient id="hand_2_" gradientTransform="matrix(1 0 0 -1 0 0)" gradientUnits="userSpaceOnUse" x1="31.0074" x2="35.8356" y1="-73.9267" y2="-78.8842">
      <stop offset="0.5979" stop-color="#F9DDBD"/>
      <stop offset="1" stop-color="#FFD29C"/>
    </linearGradient>
    <linearGradient id="hand_3_" gradientTransform="matrix(0.9964 -0.0843 -0.0843 -0.9964 0 0)" gradientUnits="userSpaceOnUse" x1="102.587585" x2="76.727085" y1="-24.595977" y2="-48.130777">
      <stop offset="0.5979" stop-color="#F9DDBD"/>
      <stop offset="1" stop-color="#FFD29C"/>
    </linearGradient>
    <radialGradient id="SVGID_1_" cx="91.386384" cy="4.229644" gradientTransform="matrix(0.987 0.161 0.161 -0.987 0 0)" gradientUnits="userSpaceOnUse" r="11.6795">
      <stop offset="0" stop-color="#CED7DB"/>
      <stop offset="0.3026" stop-color="#BFCBD0"/>
      <stop offset="0.8798" stop-color="#99ABB4"/>
      <stop offset="1" stop-color="#90A4AE"/>
    </radialGradient>
    <radialGradient id="SVGID_2_" cx="71.739043" cy="-25.156199" gradientTransform="matrix(0.9427 0.3337 0.3337 -0.9427 0 0)" gradientUnits="userSpaceOnUse" r="19.4216">
      <stop offset="0" stop-color="#00BFA5"/>
      <stop offset="1" stop-color="#009E89"/>
    </radialGradient>
    <radialGradient id="hairHighlights_1_" cx="58.468" cy="21.4556" gradientUnits="userSpaceOnUse" r="13.0716">
      <stop offset="0.5264" stop-color="#454140" stop-opacity="0"/>
      <stop offset="1" stop-color="#454140"/>
    </radialGradient>
  </defs>
  <path id="leg_1_" d="M78.33,95.99 L74.32,80.58 L61.84,85.63 C61.84,85.63 64.66,93.88 65.77,97.65 C66.69,100.77 68.24,103.96 73.3,106.44 L95.54,115.7 L96.14,107.99 L78.33,95.99 Z" fill="url(#leg_2_)"/>
  <path d="M90.17,103.96 C87.04,108.25 87.81,112.5 87.81,112.5 L96.32,116.3 L97.38,108.05 L90.17,103.96 Z" fill="#E0E0E0"/>
  <path d="M101.75,105.24 C101.53,104.6 100.42,104 99.11,104.3 L96.87,104.94 C95.34,105.73 94.98,106.69 94.98,106.69 C94.54,111.84 95.55,115.69 95.55,115.69 L100.13,121.01 C101.26,122.34 103.09,122.85 104.75,122.3 L106.03,121.87 C106.59,121.68 107.18,120.69 106.9,119.58 L101.75,105.24 Z" fill="#4568AD"/>
  <path d="M60.78,83.29 C60.54,84.91 65,95.13 65,95.13 C72.18,94.59 79.7,87.8 79.7,87.8 C79.7,87.8 75.78,83.36 76.14,75.21 L60.78,83.29 Z" fill="#616161"/>
  <path id="leg" d="M44.11,108.6 L52.62,108.53 C52.62,108.53 49.78,92.99 49.03,90.16 L68.83,83.62 L64.48,70.09 L41.74,80.37 C38.86,81.67 35.97,85.24 37.57,91.22 C38.5,94.65 44.11,108.6 44.11,108.6 Z" fill="url(#leg_3_)"/>
  <path d="M51.46,101.64 C45.87,101.17 42.37,104.22 42.37,104.22 L45.37,113.22 L53.12,110.4 L51.46,101.64 Z" fill="#E0E0E0"/>
  <path d="M53.92,115.37 C54.56,115.16 55.18,114.06 54.89,112.75 L54.27,110.5 C53.75,108.86 52.1,107.39 52.1,107.39 C46.92,106.86 43.48,110.35 43.48,110.35 L38.17,113.55 C36.82,114.67 36.29,116.49 36.83,118.16 L37.25,119.45 C37.43,120.01 38.42,120.61 39.53,120.35 L53.92,115.37 Z" fill="#4568AD"/>
  <path d="M47.17,115.09 C42.78,116.8 39.71,118.12 38.44,119.12 C37.11,120.03 38.27,120.66 39.57,120.3 L51.87,116.6 C54.2,115.81 55.05,114.8 54.95,113.68 C54.85,112.57 51.29,113.48 47.17,115.09 Z" fill="#294B7C"/>
  <path d="M46.54,78.19 C51.8,79.24 58.19,89.81 58.19,89.81 C58.19,89.81 68.4,85.18 72.05,83.02 C78.77,79.05 76.92,71.23 74.77,67.4 L72.04,61.44 L52.68,66.37 L52.42,70.55 L53.22,74.73 L46.54,78.19 Z" fill="#7C7C7C"/>
  <path id="shadow_x5F_shirt" d="M53.23,74.74 C63.27,67.69 75.8,69.66 75.8,69.66 C74.26,65.46 71.32,60.07 71.32,60.07 C71.32,60.07 52.5,65.04 52.14,67.62 C51.77,70.2 53.23,74.74 53.23,74.74 Z" opacity="0.2"/>
  <path id="arm_1_" d="M58.47,54.82 L53.7,47.7 L33.12,69.57 C33.12,69.57 33.12,71.11 34.9,72.16 C36.68,73.21 38.44,72.44 38.44,72.44 L58.47,54.82 Z" fill="url(#arm_2_)"/>
  <path id="tone" d="M33.03,72 C33.03,72 31.49,74.53 30.97,77.75 C30.76,79.08 31.22,80.27 31.39,80.49 C31.94,81.2 32.92,81.36 33.24,80.77 C33.51,80.26 32.83,79.41 32.83,78.91 C32.84,78.31 33.18,77.83 33.18,77.83 C33.39,78.45 34.82,79.76 35.29,79.63 C36.62,79.25 34.56,77.59 34.65,76.49 C34.89,73.63 35.98,71.76 35.98,71.76 L33.03,72 Z" fill="#EDBD82"/>
  <path id="hand_1_" d="M39.37,70.45 C39.57,72.26 39.21,72.09 38.84,74.38 C38.62,75.79 39.33,76.33 39.29,77.34 C39.27,77.94 38.59,78.6 37.9,78.2 C36.37,77.31 37.06,73.7 34.18,74.52 C32.07,75.12 31.11,79.76 29.34,81.24 C27.61,82.69 26.17,81.5 26.61,80.96 C26.61,80.96 27.55,79.26 28.66,77.43 C29.99,75.23 30.46,71.15 34.28,68.59 L39.37,70.45 Z" fill="url(#hand_2_)"/>
  <path id="shirt_1_" d="M60.91,40.05 C53.21,46.43 48.19,52.81 48.19,52.81 C52.46,53.09 56.28,59.29 56.28,59.29 C56.28,59.29 66.7,35.25 60.91,40.05 Z" fill="#008F76"/>
  <path id="head_1_" d="M69.35,15.85 C67.17,11.15 59.89,8.71 54.86,9.93 C49.23,11.3 46.46,15.64 46.04,20.91 C45.89,22.82 46.09,24.7 46.51,26.01 C46.56,26.17 46.96,27.31 47.01,27.67 C47.33,29.06 44.71,30.66 44.51,32.24 C44.36,33.42 46.85,33.98 47.06,34.18 C48.09,35.15 46.96,40.07 53.68,40.25 C56.02,40.31 56.47,40.03 56.47,40.03 L56.94,47.66 L68.12,39.42 C68.12,39.42 66.05,36.14 67.69,32.84 C69.81,28.54 72.13,21.84 69.35,15.85 Z" fill="#F9DDBD"/>
  <path id="mouth_1_" d="M47.95,36.91 C48.88,36.89 49.78,36.61 50.52,35.97 C51.33,35.27 50.69,34.6 49.74,35.1 C49.17,35.4 48.34,35.59 47.57,35.5 L47.95,36.91 Z" fill="#444444"/>
  <path id="eye_1_" d="M52.431,28.008 C52.541,29.041 52.083,29.936 51.408,30.008 C50.732,30.081 50.095,29.302 49.985,28.27 C49.875,27.237 50.333,26.342 51.008,26.27 C51.684,26.198 52.321,26.976 52.431,28.008 Z" fill="#312D2D"/>
  <path id="eyebrow_1_" d="M50.04,25.53 C48.92,26.08 48.51,25.36 48.79,24.66 C49,24.15 49.65,23.64 51.07,23.66 C52.41,23.69 53.08,24.34 53.51,24.73 C53.94,25.12 53.98,25.58 53.69,25.67 C53.28,25.81 51.42,24.85 50.04,25.53 Z" fill="#454140"/>
  <path d="M105.21,15.09 A11.66 11.66 0 1 1 81.89,15.09 A11.66 11.66 0 1 1 105.21,15.09 Z" fill="url(#SVGID_1_)"/>
  <path id="arm" d="M68.48,38.87 C62.91,41.52 67.86,48.05 67.86,48.05 C67.86,48.05 78.61,46.25 82.98,45.22 C89.19,43.78 90.13,41.64 91.64,39.76 C92.85,38.25 98.86,29.36 98.86,29.36 L98.52,26.21 L93.01,27.41 L83.73,35.93 C83.73,35.92 73.35,36.56 68.48,38.87 Z" fill="url(#arm_3_)"/>
  <path id="hand" d="M93.18,27.87 C93.04,25.04 96.64,23.6 96.64,23.6 C96.64,23.6 95.43,20.59 94.96,19.64 C94.5,18.69 94.82,18.03 95,17.93 C95.58,17.6 96.17,17.92 96.35,18.13 C97.12,19.06 98.28,20.68 98.28,20.68 C98.78,20.48 98,17.88 97.61,16.13 C97.38,15.1 98.6,13.98 99.48,15.81 C100.21,17.32 101.15,20.16 101.15,20.16 C101.32,19 101.11,17.18 100.88,14.89 C100.77,13.82 101.21,13.34 101.91,13.28 C102.43,13.23 102.88,13.37 103.24,15.51 C103.35,16.15 103.53,19.76 103.53,19.76 C104.54,19.24 104.79,16.45 104.87,14.65 C104.92,13.38 106.6,13.06 106.82,14.97 C107.27,18.85 105.26,22.16 104.34,23.71 C103.86,24.52 98.56,29.54 98.56,29.54 L93.18,27.87 Z" fill="url(#hand_3_)"/>
  <path d="M79,65.63 C70.24,57.34 74.36,50.2 74.36,50.2 C74.36,50.2 74.44,48.98 78.99,48.06 C78.99,48.06 78.35,42.81 80.97,35.83 C80.97,35.83 70.96,35.93 66.82,37.29 C64.34,38.1 60.33,38.65 56.56,42.85 C54.4,45.25 52.91,47.55 51.39,54.99 C49.7,63.28 53.24,74.75 53.24,74.75 C60.88,66.05 79,65.63 79,65.63 Z" fill="url(#SVGID_2_)"/>
  <path id="hair_1_" d="M69.46,13.64 C66.84,10.81 62.27,9.14 58.01,9.22 C55.15,9.28 52.44,9.99 50.17,11.27 C50.13,11.29 45.81,13.79 44.96,16.01 C44.05,18.39 45.12,19.67 45.37,19.9 C45.57,20.08 45.84,20.13 46.08,20.14 C46.08,20.14 46.09,20.16 46.09,20.16 C46.09,20.16 46.13,20.15 46.2,20.14 C46.43,20.13 46.61,20.08 46.61,20.08 C48.27,19.83 53.57,19.1 56.3,19.45 C56.73,19.51 57.22,19.6 57.44,19.98 C57.54,20.14 57.69,21.22 57.71,21.41 C58.07,23.84 57.99,25.39 58.85,26.87 C58.99,27.11 59.51,27.4 59.51,27.4 L60.39,25.78 C60.95,24.85 61.47,24.05 62.29,24.15 C64.73,24.43 64.72,28.73 61.99,29.96 C61.99,29.96 62.77,33.11 65.86,33.62 C66.18,33.67 66.47,33.7 66.72,33.7 C66.83,33.7 66.94,33.69 67.05,33.66 C68.13,33.62 68.9,33.3 69.07,32.26 C69.45,30.02 69.98,29.02 70.55,27.96 C71.22,26.71 71.92,25.42 72.24,22.17 C72.59,18.92 71.62,15.97 69.46,13.64 Z" fill="#312D2D"/>
  <path id="hairHighlights_2_" d="M69.46,13.64 C66.84,10.81 62.27,9.14 58.01,9.22 C55.15,9.28 52.44,9.99 50.17,11.27 C50.13,11.29 45.81,13.79 44.96,16.01 C44.05,18.39 45.12,19.67 45.37,19.9 C45.57,20.08 45.84,20.13 46.08,20.14 C46.08,20.14 46.09,20.16 46.09,20.16 C46.09,20.16 46.13,20.15 46.2,20.14 C46.43,20.13 46.61,20.08 46.61,20.08 C48.27,19.83 53.57,19.1 56.3,19.45 C56.73,19.51 57.22,19.6 57.44,19.98 C57.54,20.14 57.69,21.22 57.71,21.41 C58.07,23.84 57.99,25.39 58.85,26.87 C58.99,27.11 59.51,27.4 59.51,27.4 L60.39,25.78 C60.95,24.85 61.47,24.05 62.29,24.15 C64.73,24.43 64.72,28.73 61.99,29.96 C61.99,29.96 62.77,33.11 65.86,33.62 C66.18,33.67 66.47,33.7 66.72,33.7 C66.83,33.7 66.94,33.69 67.05,33.66 C68.13,33.62 68.9,33.3 69.07,32.26 C69.45,30.02 69.98,29.02 70.55,27.96 C71.22,26.71 71.92,25.42 72.24,22.17 C72.59,18.92 71.62,15.97 69.46,13.64 Z" fill="url(#hairHighlights_1_)"/>
</svg>
